X:187
T:Golden Slippers
L:1/8
K:G
GA |: B2 B2 BAGA | B2 B2 B2 GA | B2 B2 c3 B | B2 A2 A2 FG | 
A2 A2 AGFG | A2 A2 A2 FG | A2 c2 B2 A2 | A2 G6 :|| 
D6 G2 | B2 A2 G2 F2 | E6 G2 | c2 B2 A2 G2 | 
F3 D F2 G2 | A2 A2 A2 D2 | G2 D2 G2 A2 | B8 | 
D6 G2 | B2 A2 G2 F2 | E6 G2 | c2 B2 A2 G2 | 
F3 D F2 G2 | A2 A2 A2 c2 | B3 c B2 A2 | G8 || 

